X: 20971
T: the LAWLAND LADS THINK THEY'RE FINE
%R: jig
B: "Edinburgh Repository of Music" v.2 p.97 #1
F: http://digital.nls.uk/special-collections-of-printed-music/pageturner.cfm?id=87776133
Z: 2015 John Chambers <jc:trillian.mit.edu>
M: 6/8
L: 1/8
K: F
F |\
F>GF A>BA | c>dc c<ag | fcA {c}~B>cd | c<fA A{BA}GF |\
F>GF c>dc | f/e/f/g/a/b/ a<c'b | afc c/e//d//^c//d/e/{g}f | c>{e}dc/B/ A<F :|
|: {E}F |\
{F}A2{cBA}B c2f | {f}a>gf gcB Ac~f/a/ agf | {f}e2f gcB |\
A2f fed | (c/d/e/f/g/a/) {c'}Hb2a/g/ | (a/b/c'/a/g/f/) d>ef | (c>{e}dc/B/) A<F H:|
